64x64/apps/cuyo.svg

<svg xmlns="http://www.w3.org/2000/svg" width="64" height="64" version="1">
 <path style="opacity:0.2" d="m 49.920552,15.953234 c 0.321462,4.992034 -0.300594,10.187998 -2.453698,14.076702 -1.036148,1.851224 -2.22216,3.658398 -3.204184,5.503218 -2.835102,5.325982 0.805964,3.27456 -5.22086,3.27456 H 24.586094 c -6.026822,0 -1.006896,11.315244 -4.604424,-0.989342 -1.055134,-3.608862 -5.971813,-11.330738 -5.981667,-22.255896 -0.0036,-3.991028 3.62294,-6.5829588 7.354351,-8.1934038 4.16383,-2.051346 8.433126,-2.3370972 12.824412,-2.3431352 7.886486,-0.3908158 15.522412,3.6526552 15.741786,10.927297 z"/>
 <path style="opacity:0.2" d="M 15.192973,33 H 48.741476 C 54.942384,33 59.93445,37.909474 59.93445,44.007788 61.453376,60.652658 36.099924,61.03698 33.19906,60.998068 30.298198,60.959154 4,60.152812 4,44.007788 4,37.909474 8.9920662,33 15.192973,33 Z"/>
 <path style="fill:#848484" d="m 49.920552,14.953234 c 0.321462,4.992035 -0.300594,10.187998 -2.453698,14.076702 -1.036148,1.851224 -2.22216,3.658398 -3.204184,5.503218 -2.835102,5.325982 0.805964,3.27456 -5.22086,3.27456 H 24.586094 c -6.026822,0 -1.006896,11.315244 -4.604424,-0.989342 -1.055134,-3.608862 -5.971813,-11.330738 -5.981667,-22.255896 -0.0036,-3.991028 3.62294,-6.5829584 7.354351,-8.1934034 4.16383,-2.051346 8.433126,-2.3370972 12.824412,-2.3431352 7.886486,-0.3908158 15.522412,3.6526552 15.741786,10.9272966 z"/>
 <ellipse style="fill:#f4f4f7" cx="26.6" cy="28.4" rx="5.6" ry="8.4"/>
 <ellipse id="ellipse857" style="fill:#f4f4f7" cx="37.4" cy="28.4" rx="5.6" ry="8.4"/>
 <ellipse id="ellipse861" style="fill:#17191e" cx="36.2" cy="30.3" rx="2.8" ry="4.2"/>
 <ellipse id="ellipse859" style="fill:#17191e" cx="27.8" cy="30.3" rx="2.8" ry="4.2"/>
 <path style="fill:#b7b7b7" d="M 15.192973,32 H 48.741476 C 54.942384,32 59.93445,36.909474 59.93445,43.007788 61.453376,59.652658 36.099924,60.03698 33.19906,59.998068 30.298198,59.959154 4,59.152812 4,43.007788 4,36.909474 8.9920662,32 15.192973,32 Z"/>
 <path style="opacity:0.1;fill:#f4f4f7" d="M 35.652344 4.0039062 C 35.163146 3.9939862 34.672592 4.0029174 34.179688 4.0273438 C 29.788401 4.0333837 25.519299 4.3158415 21.355469 6.3671875 C 17.624059 7.9776319 13.9964 10.571472 14 14.5625 C 14.000201 14.784588 14.013204 14.998474 14.019531 15.216797 C 14.220988 11.423162 17.734138 8.9301225 21.355469 7.3671875 C 25.519299 5.3158415 29.788402 5.0333838 34.179688 5.0273438 C 34.672592 5.0029173 35.163146 4.9939862 35.652344 5.0039062 C 42.99032 5.1527535 49.716217 9.1331484 49.921875 15.953125 C 49.958152 16.516549 49.970771 17.082529 49.980469 17.648438 C 49.989462 16.749044 49.979552 15.848915 49.921875 14.953125 C 49.716217 8.1331484 42.99032 4.1527534 35.652344 4.0039062 z"/>
 <path style="opacity:0.2;fill:#f4f4f7" d="M 15.191406 32 C 8.9904992 32 4 36.909498 4 43.007812 C 4 43.179571 4.0158605 43.341905 4.0253906 43.507812 C 4.2912244 37.645084 9.1621559 33 15.191406 33 L 48.742188 33 C 54.943095 33 59.933594 37.909498 59.933594 44.007812 C 59.958199 44.277536 59.96227 44.533395 59.970703 44.792969 C 59.991136 44.217977 59.990434 43.630913 59.933594 43.007812 C 59.933594 36.909498 54.943095 32 48.742188 32 L 15.191406 32 z"/>
</svg>

<svg xmlns="http://www.w3.org/2000/svg" width="64" height="64" version="1"><path style="opacity:.2" d="M49.92 15.953c.322 4.992-.3 10.188-2.453 14.077-1.036 1.851-2.222 3.658-3.204 5.503-2.835 5.326.806 3.275-5.221 3.275H24.586c-6.027 0-1.007 11.315-4.604-.99C18.927 34.21 14.01 26.488 14 15.562c-.004-3.99 3.623-6.582 7.354-8.193 4.164-2.051 8.433-2.337 12.825-2.343 7.886-.39 15.522 3.653 15.742 10.927z"/><path style="opacity:.2" d="M15.193 33h33.548c6.201 0 11.193 4.91 11.193 11.008C61.454 60.653 36.1 61.037 33.2 60.998 30.3 60.96 4 60.153 4 44.008 4 37.909 8.992 33 15.193 33z"/><path style="fill:#848484" d="M49.92 14.953c.322 4.992-.3 10.188-2.453 14.077-1.036 1.851-2.222 3.658-3.204 5.503-2.835 5.326.806 3.275-5.221 3.275H24.586c-6.027 0-1.007 11.315-4.604-.99C18.927 33.21 14.01 25.488 14 14.562c-.004-3.99 3.623-6.582 7.354-8.193 4.164-2.051 8.433-2.337 12.825-2.343 7.886-.39 15.522 3.653 15.742 10.927z"/><ellipse style="fill:#f4f4f7" cx="26.6" cy="28.4" rx="5.6" ry="8.4"/><ellipse style="fill:#f4f4f7" cx="37.4" cy="28.4" rx="5.6" ry="8.4"/><ellipse style="fill:#17191e" cx="36.2" cy="30.3" rx="2.8" ry="4.2"/><ellipse style="fill:#17191e" cx="27.8" cy="30.3" rx="2.8" ry="4.2"/><path style="fill:#b7b7b7" d="M15.193 32h33.548c6.201 0 11.193 4.91 11.193 11.008C61.454 59.653 36.1 60.037 33.2 59.998 30.3 59.96 4 59.153 4 43.008 4 36.909 8.992 32 15.193 32z"/><path style="opacity:.1;fill:#f4f4f7" d="M35.652 4.004c-.489-.01-.98-.001-1.472.023-4.392.006-8.66.289-12.825 2.34-3.73 1.61-7.359 4.204-7.355 8.195 0 .223.013.436.02.655.201-3.794 3.714-6.287 7.335-7.85 4.164-2.051 8.433-2.334 12.825-2.34.493-.024.983-.033 1.472-.023 7.338.149 14.064 4.13 14.27 10.95.036.563.049 1.129.058 1.694.01-.899 0-1.8-.058-2.695-.206-6.82-6.932-10.8-14.27-10.95z"/><path style="opacity:.2;fill:#f4f4f7" d="M15.191 32C8.991 32 4 36.91 4 43.008c0 .172.016.334.025.5C4.291 37.645 9.162 33 15.191 33h33.551c6.201 0 11.192 4.91 11.192 11.008.024.27.028.525.037.785.02-.575.02-1.162-.037-1.785 0-6.099-4.99-11.008-11.192-11.008h-33.55z"/></svg>
